krita/pics/svg/dark_rotate-canvas-right.svg

<?xml version="1.0" encoding="UTF-8" standalone="no"?>
<!-- Created with Inkscape (http://www.inkscape.org/) -->

<svg
   xmlns:dc="http://purl.org/dc/elements/1.1/"
   xmlns:cc="http://creativecommons.org/ns#"
   xmlns:rdf="http://www.w3.org/1999/02/22-rdf-syntax-ns#"
   xmlns:svg="http://www.w3.org/2000/svg"
   xmlns="http://www.w3.org/2000/svg"
   xmlns:sodipodi="http://sodipodi.sourceforge.net/DTD/sodipodi-0.dtd"
   xmlns:inkscape="http://www.inkscape.org/namespaces/inkscape"
   width="22"
   height="22"
   id="svg2"
   version="1.1"
   inkscape:version="0.92.1 r15371"
   viewBox="0 0 22 22"
   sodipodi:docname="dark_rotate-canvas-right.svg">
  <defs
     id="defs4" />
  <sodipodi:namedview
     id="base"
     pagecolor="#ffffff"
     bordercolor="#666666"
     borderopacity="1.0"
     inkscape:pageopacity="0.0"
     inkscape:pageshadow="2"
     inkscape:zoom="23.069358"
     inkscape:cx="-1.5036055"
     inkscape:cy="6.3884639"
     inkscape:document-units="px"
     inkscape:current-layer="layer2"
     showgrid="true"
     units="px"
     borderlayer="true"
     inkscape:showpageshadow="false"
     inkscape:window-width="1884"
     inkscape:window-height="1051"
     inkscape:window-x="0"
     inkscape:window-y="0"
     inkscape:window-maximized="1">
    <sodipodi:guide
       position="2,20.000017"
       orientation="18,0"
       id="guide4066"
       inkscape:locked="false" />
    <sodipodi:guide
       position="2,2.0000174"
       orientation="0,18"
       id="guide4068"
       inkscape:locked="false" />
    <sodipodi:guide
       position="20,2.0000174"
       orientation="-18,0"
       id="guide4070"
       inkscape:locked="false" />
    <sodipodi:guide
       position="20,20.000017"
       orientation="0,-18"
       id="guide4072"
       inkscape:locked="false" />
    <sodipodi:guide
       position="3,19.000017"
       orientation="16,0"
       id="guide4074"
       inkscape:locked="false" />
    <sodipodi:guide
       position="3,3.0000174"
       orientation="0,16"
       id="guide4076"
       inkscape:locked="false" />
    <sodipodi:guide
       position="19,3.0000174"
       orientation="-16,0"
       id="guide4078"
       inkscape:locked="false" />
    <sodipodi:guide
       position="19,19.000017"
       orientation="0,-16"
       id="guide4080"
       inkscape:locked="false" />
    <inkscape:grid
       type="xygrid"
       id="grid4101" />
    <sodipodi:guide
       position="8,19.000017"
       orientation="0,-5"
       id="guide4124"
       inkscape:locked="false" />
    <sodipodi:guide
       position="11,3.0000174"
       orientation="0,4"
       id="guide4241"
       inkscape:locked="false" />
  </sodipodi:namedview>
  <metadata
     id="metadata7">
    <rdf:RDF>
      <cc:Work
         rdf:about="">
        <dc:format>image/svg+xml</dc:format>
        <dc:type
           rdf:resource="http://purl.org/dc/dcmitype/StillImage" />
        <dc:title></dc:title>
        <dc:date>2017</dc:date>
        <dc:creator>
          <cc:Agent>
            <dc:title>Timothée Giet</dc:title>
          </cc:Agent>
        </dc:creator>
        <cc:license
           rdf:resource="http://creativecommons.org/licenses/by-sa/4.0/" />
      </cc:Work>
      <cc:License
         rdf:about="http://creativecommons.org/licenses/by-sa/4.0/">
        <cc:permits
           rdf:resource="http://creativecommons.org/ns#Reproduction" />
        <cc:permits
           rdf:resource="http://creativecommons.org/ns#Distribution" />
        <cc:requires
           rdf:resource="http://creativecommons.org/ns#Notice" />
        <cc:requires
           rdf:resource="http://creativecommons.org/ns#Attribution" />
        <cc:permits
           rdf:resource="http://creativecommons.org/ns#DerivativeWorks" />
        <cc:requires
           rdf:resource="http://creativecommons.org/ns#ShareAlike" />
      </cc:License>
    </rdf:RDF>
  </metadata>
  <g
     inkscape:label="Calque 1"
     inkscape:groupmode="layer"
     id="layer1"
     transform="translate(0,-1030.3622)">
    <g
       inkscape:label="Layer 1"
       id="layer2"
       transform="translate(-4.999998,1025.3622)">
      <g
         transform="matrix(-1,0,0,1,26.939338,-1024.8874)"
         id="layer1-1"
         inkscape:label="Capa 1"
         style="fill:#373737;fill-opacity:1">
        <path
           style="color:#000000;clip-rule:nonzero;display:inline;overflow:visible;visibility:visible;opacity:1;isolation:auto;mix-blend-mode:normal;color-interpolation:sRGB;color-interpolation-filters:linearRGB;solid-color:#000000;solid-opacity:1;fill:#373737;fill-opacity:1;fill-rule:evenodd;stroke:none;stroke-width:1;stroke-linecap:square;stroke-linejoin:miter;stroke-miterlimit:4;stroke-dasharray:none;stroke-dashoffset:0;stroke-opacity:1;marker:none;color-rendering:auto;image-rendering:auto;shape-rendering:auto;text-rendering:auto;enable-background:accumulate"
           d="M 10.939453 3.4746094 A 8 7.9999914 0 0 0 2.9394531 11.474609 A 8 7.9999914 0 0 0 10.939453 19.474609 A 8 7.9999914 0 0 0 11 19.472656 L 11 18.470703 A 7 7 0 0 1 10.939453 18.474609 A 7 7 0 0 1 3.9394531 11.474609 A 7 7 0 0 1 10.939453 4.4746094 A 7 7 0 0 1 17.306641 8.5800781 L 18.212891 8.1679688 A 8 7.9999914 0 0 0 10.939453 3.4746094 z "
           transform="matrix(-1,0,0,1,21.93934,1029.8874)"
           id="path4508" />
        <path
           sodipodi:nodetypes="cccc"
           inkscape:connector-curvature="0"
           id="path4513"
           d="m 2.87868,1039.4835 1.414213,-7.071 5.656854,5.6568 z"
           style="fill:#373737;fill-opacity:1;fill-rule:evenodd;stroke:none;stroke-width:1px;stroke-linecap:butt;stroke-linejoin:miter;stroke-opacity:1" />
        <path
           style="color:#000000;clip-rule:nonzero;display:inline;overflow:visible;visibility:visible;opacity:1;isolation:auto;mix-blend-mode:normal;color-interpolation:sRGB;color-interpolation-filters:linearRGB;solid-color:#000000;solid-opacity:1;fill:#373737;fill-opacity:1;fill-rule:evenodd;stroke:none;stroke-width:1;stroke-linecap:square;stroke-linejoin:miter;stroke-miterlimit:4;stroke-dasharray:none;stroke-dashoffset:0;stroke-opacity:1;marker:none;color-rendering:auto;image-rendering:auto;shape-rendering:auto;text-rendering:auto;enable-background:accumulate"
           d="m 12.93934,1039.8874 v 7 h -8 v -7 z m -1,2 h -6 v 4 h 6 z"
           id="rect4558"
           inkscape:connector-curvature="0"
           sodipodi:nodetypes="cccccccccc" />
      </g>
    </g>
  </g>
</svg>

<!--Created with Inkscape (http://www.inkscape.org/)--><svg xmlns:dc="http://purl.org/dc/elements/1.1/" xmlns:cc="http://creativecommons.org/ns#" xmlns:rdf="http://www.w3.org/1999/02/22-rdf-syntax-ns#" xmlns="http://www.w3.org/2000/svg" xmlns:sodipodi="http://sodipodi.sourceforge.net/DTD/sodipodi-0.dtd" xmlns:inkscape="http://www.inkscape.org/namespaces/inkscape" width="22" height="22" id="svg2" version="1.1" inkscape:version="0.92.1 r15371" viewBox="0 0 22 22" sodipodi:docname="dark_rotate-canvas-right.svg"><sodipodi:namedview id="base" pagecolor="#ffffff" bordercolor="#666666" borderopacity="1.0" inkscape:pageopacity="0.0" inkscape:pageshadow="2" inkscape:zoom="23.069358" inkscape:cx="-1.5036055" inkscape:cy="6.3884639" inkscape:document-units="px" inkscape:current-layer="layer2" showgrid="true" units="px" borderlayer="true" inkscape:showpageshadow="false" inkscape:window-width="1884" inkscape:window-height="1051" inkscape:window-x="0" inkscape:window-y="0" inkscape:window-maximized="1"><sodipodi:guide position="2,20.000017" orientation="18,0" id="guide4066" inkscape:locked="false"/><sodipodi:guide position="2,2.0000174" orientation="0,18" id="guide4068" inkscape:locked="false"/><sodipodi:guide position="20,2.0000174" orientation="-18,0" id="guide4070" inkscape:locked="false"/><sodipodi:guide position="20,20.000017" orientation="0,-18" id="guide4072" inkscape:locked="false"/><sodipodi:guide position="3,19.000017" orientation="16,0" id="guide4074" inkscape:locked="false"/><sodipodi:guide position="3,3.0000174" orientation="0,16" id="guide4076" inkscape:locked="false"/><sodipodi:guide position="19,3.0000174" orientation="-16,0" id="guide4078" inkscape:locked="false"/><sodipodi:guide position="19,19.000017" orientation="0,-16" id="guide4080" inkscape:locked="false"/><inkscape:grid type="xygrid" id="grid4101"/><sodipodi:guide position="8,19.000017" orientation="0,-5" id="guide4124" inkscape:locked="false"/><sodipodi:guide position="11,3.0000174" orientation="0,4" id="guide4241" inkscape:locked="false"/></sodipodi:namedview><metadata id="metadata7"><rdf:RDF><cc:Work><dc:format>image/svg+xml</dc:format><dc:type rdf:resource="http://purl.org/dc/dcmitype/StillImage"/><dc:title/><dc:date>2017</dc:date><dc:creator><cc:Agent><dc:title>Timothée Giet</dc:title></cc:Agent></dc:creator><cc:license rdf:resource="http://creativecommons.org/licenses/by-sa/4.0/"/></cc:Work><cc:License rdf:about="http://creativecommons.org/licenses/by-sa/4.0/"><cc:permits rdf:resource="http://creativecommons.org/ns#Reproduction"/><cc:permits rdf:resource="http://creativecommons.org/ns#Distribution"/><cc:requires rdf:resource="http://creativecommons.org/ns#Notice"/><cc:requires rdf:resource="http://creativecommons.org/ns#Attribution"/><cc:permits rdf:resource="http://creativecommons.org/ns#DerivativeWorks"/><cc:requires rdf:resource="http://creativecommons.org/ns#ShareAlike"/></cc:License></rdf:RDF></metadata><g inkscape:label="Calque 1" inkscape:groupmode="layer" id="layer1" transform="translate(0 -1030.362)"><g inkscape:label="Layer 1" id="layer2" transform="translate(-5 1025.362)"><g transform="matrix(-1 0 0 1 26.94 -1024.887)" id="layer1-1" inkscape:label="Capa 1" style="fill:#373737;fill-opacity:1"><path style="color:#000;clip-rule:nonzero;display:inline;overflow:visible;visibility:visible;opacity:1;isolation:auto;mix-blend-mode:normal;color-interpolation:sRGB;color-interpolation-filters:linearRGB;solid-color:#000;solid-opacity:1;fill:#373737;fill-opacity:1;fill-rule:evenodd;stroke:none;stroke-width:1;stroke-linecap:square;stroke-linejoin:miter;stroke-miterlimit:4;stroke-dasharray:none;stroke-dashoffset:0;stroke-opacity:1;marker:none;color-rendering:auto;image-rendering:auto;shape-rendering:auto;text-rendering:auto;enable-background:accumulate" d="M10.94 3.475a8 8 0 0 0-8 8 8 8 0 0 0 8 8 8 8 0 0 0 .06-.002V18.47a7 7 0 0 1-.06.004 7 7 0 0 1-7-7 7 7 0 0 1 7-7 7 7 0 0 1 6.367 4.105l.906-.412a8 8 0 0 0-7.274-4.693z" transform="matrix(-1 0 0 1 21.94 1029.887)" id="path4508"/><path sodipodi:nodetypes="cccc" inkscape:connector-curvature="0" id="path4513" d="m2.879 1039.484 1.414-7.071 5.657 5.656z" style="fill:#373737;fill-opacity:1;fill-rule:evenodd;stroke:none;stroke-width:1px;stroke-linecap:butt;stroke-linejoin:miter;stroke-opacity:1"/><path style="color:#000;clip-rule:nonzero;display:inline;overflow:visible;visibility:visible;opacity:1;isolation:auto;mix-blend-mode:normal;color-interpolation:sRGB;color-interpolation-filters:linearRGB;solid-color:#000;solid-opacity:1;fill:#373737;fill-opacity:1;fill-rule:evenodd;stroke:none;stroke-width:1;stroke-linecap:square;stroke-linejoin:miter;stroke-miterlimit:4;stroke-dasharray:none;stroke-dashoffset:0;stroke-opacity:1;marker:none;color-rendering:auto;image-rendering:auto;shape-rendering:auto;text-rendering:auto;enable-background:accumulate" d="M12.94 1039.887v7h-8v-7zm-1 2h-6v4h6z" id="rect4558" inkscape:connector-curvature="0" sodipodi:nodetypes="cccccccccc"/></g></g></g></svg>
